public/img/home/femme.svg

<svg xmlns="http://www.w3.org/2000/svg" xmlns:xlink="http://www.w3.org/1999/xlink" preserveAspectRatio="xMidYMid" width="28.031" height="43.032" viewBox="0 0 28.031 43.032">
  <defs>
    <style>
      .cls-1 {
        fill: #b6b6b6;
        fill-rule: evenodd;
      }
    </style>
  </defs>
  <path d="M26.943,8.584 C25.875,6.062 24.103,3.922 21.868,2.408 C19.626,0.896 16.925,0.009 14.023,0.009 C12.092,0.009 10.247,0.402 8.567,1.113 C6.048,2.181 3.912,3.960 2.400,6.199 C0.889,8.437 0.004,11.149 0.004,14.049 C0.004,15.984 0.399,17.835 1.106,19.517 C2.173,22.039 4.041,24.179 6.275,25.691 C7.942,26.821 8.081,27.599 12.041,27.922 L12.041,34.398 L7.514,34.398 C6.375,34.398 5.449,34.741 5.449,35.884 C5.449,37.027 6.375,37.370 7.514,37.370 L12.041,37.370 L12.041,40.856 C12.041,42.056 12.822,43.029 14.021,43.029 C15.220,43.029 16.001,42.056 16.001,40.856 L16.001,37.370 L20.535,37.370 C21.678,37.370 22.602,37.027 22.602,35.884 C22.602,34.741 21.678,34.398 20.535,34.398 L16.001,34.398 L16.001,27.922 C16.001,27.744 18.350,27.427 19.386,26.987 C21.903,25.921 24.088,24.143 25.602,21.902 C27.112,19.664 28.024,16.952 28.021,14.051 C28.021,12.117 27.653,10.265 26.943,8.584 ZM23.771,18.173 C22.969,20.072 21.625,21.692 19.936,22.834 C18.247,23.975 16.221,24.642 14.023,24.642 C12.559,24.642 11.174,24.346 9.913,23.810 C8.013,23.009 6.397,21.663 5.253,19.973 C4.118,18.279 3.448,16.250 3.448,14.051 C3.448,12.584 3.745,11.197 4.282,9.929 C5.084,8.030 6.429,6.411 8.114,5.266 C9.806,4.126 11.831,3.460 14.024,3.460 C15.493,3.460 16.880,3.757 18.141,4.291 C20.038,5.093 21.653,6.439 22.796,8.130 C23.935,9.821 24.601,11.851 24.601,14.049 C24.601,15.517 24.305,16.905 23.771,18.173 Z" class="cls-1"/>
</svg>

<svg xmlns="http://www.w3.org/2000/svg" width="28.031" height="43.032" preserveAspectRatio="xMidYMid"><defs><style>.cls-1 { fill: #b6b6b6; fill-rule: evenodd; }</style></defs><path d="M26.94 8.58c-1.07-2.52-2.84-4.66-5.07-6.17C19.63.9 16.92 0 14.02 0c-1.93 0-3.77.4-5.45 1.1C6.05 2.2 3.9 3.97 2.4 6.2.9 8.44 0 11.15 0 14.05c0 1.93.4 3.8 1.1 5.47 1.07 2.52 2.94 4.66 5.18 6.17 1.66 1.12 1.8 1.9 5.76 2.22v6.48H7.5c-1.13 0-2.05.34-2.05 1.48 0 1.15.92 1.5 2.06 1.5h4.54v3.48c0 1.2.78 2.17 1.98 2.17S16 42.06 16 40.86v-3.5h4.54c1.14 0 2.06-.33 2.06-1.48 0-1.14-.92-1.48-2.07-1.48H16v-6.48c0-.18 2.35-.5 3.4-.93 2.5-1.08 4.7-2.86 6.2-5.1 1.5-2.24 2.42-4.95 2.42-7.85 0-1.93-.37-3.8-1.08-5.47zm-3.17 9.6c-.8 1.9-2.14 3.5-3.83 4.65-1.7 1.15-3.72 1.8-5.92 1.8-1.46 0-2.85-.28-4.1-.82C8 23 6.4 21.67 5.24 19.98c-1.13-1.7-1.8-3.72-1.8-5.92 0-1.47.3-2.85.83-4.12.8-1.9 2.15-3.52 3.83-4.66 1.7-1.14 3.73-1.8 5.92-1.8 1.47 0 2.86.3 4.12.82 1.9.8 3.5 2.14 4.66 3.83 1.13 1.7 1.8 3.72 1.8 5.92 0 1.47-.3 2.86-.83 4.12z" class="cls-1"/></svg>
